assets/logo/Group.svg

<svg width="170" height="64" viewBox="0 0 170 64" fill="none" xmlns="http://www.w3.org/2000/svg">
<path d="M142.388 55.4724C141.468 55.4724 140.583 55.3915 139.723 55.2182C138.863 55.045 138.17 54.8254 137.632 54.5482L138.409 51.1749H138.97C139.341 51.7179 139.759 52.2724 140.225 52.85C140.691 53.4276 141.109 53.8782 141.48 54.2132C141.802 54.3056 142.184 54.3518 142.615 54.3518C144.192 54.3518 144.992 53.8897 144.992 52.9655C144.992 52.5958 144.873 52.2608 144.634 51.9605C144.395 51.6601 144.084 51.406 143.702 51.1749C143.32 50.9554 142.83 50.6897 142.22 50.4125L141.85 50.2276C141.025 49.8464 140.344 49.4883 139.807 49.1417C139.269 48.7951 138.827 48.3677 138.481 47.8478C138.134 47.328 137.955 46.7041 137.955 45.9648C137.955 44.7633 138.457 43.8507 139.448 43.2384C140.452 42.6146 141.79 42.3027 143.463 42.3027C144.108 42.3027 144.801 42.3604 145.53 42.4875C146.271 42.6146 146.916 42.7763 147.478 42.9727L146.868 46.2652H146.295C145.375 44.8673 144.67 43.9547 144.168 43.5157C143.69 43.4579 143.343 43.4348 143.14 43.4348C142.519 43.4348 142.041 43.5388 141.718 43.7583C141.408 43.9778 141.241 44.2781 141.241 44.6709C141.241 45.0522 141.348 45.3987 141.575 45.7106C141.802 46.011 142.101 46.2883 142.483 46.5193C142.866 46.7504 143.355 47.016 143.953 47.2933L144.323 47.4666C145.124 47.8363 145.793 48.1944 146.342 48.5525C146.892 48.9106 147.346 49.3496 147.717 49.8579C148.075 50.3778 148.266 50.9785 148.266 51.6717C148.266 52.4919 148.015 53.185 147.513 53.7626C147.012 54.3403 146.307 54.7677 145.434 55.0565C144.538 55.3338 143.535 55.4724 142.388 55.4724ZM133.283 55.4724C132.16 55.4724 131.24 55.1836 130.523 54.6175C129.818 54.0399 129.46 53.1966 129.46 52.0644V43.7467H127.811V42.9727L129.424 41.6326L132.566 39.2875H133.295V42.6146H137.166V43.7467H133.379V51.637C133.379 52.2608 133.522 52.7229 133.809 52.9886C134.095 53.2659 134.514 53.4045 135.075 53.4045C135.493 53.4045 135.84 53.3352 136.127 53.185C136.413 53.0348 136.736 52.8153 137.095 52.5381L137.704 53.4276C137.226 54.0052 136.605 54.4904 135.828 54.8948C135.051 55.276 134.203 55.4724 133.283 55.4724ZM112.338 54.6753L113.927 53.1619V45.4334L112.481 43.8276V43.3308L117.392 42.3027L117.738 42.6262L117.583 44.4745H117.858C118.503 43.8276 119.232 43.2962 120.032 42.8918C120.833 42.4875 121.681 42.2796 122.577 42.2796C123.318 42.2796 123.999 42.4413 124.609 42.7417C125.206 43.0536 125.684 43.481 126.03 44.0355C126.377 44.59 126.544 45.2139 126.544 45.9186V53.1504L128.121 54.6637V55.172H121.108V54.6637L122.613 53.1504V46.5886C122.613 45.8955 122.434 45.3294 122.088 44.902C121.741 44.4745 121.287 44.2666 120.737 44.2666C120.247 44.2666 119.746 44.4399 119.232 44.7749C118.73 45.1215 118.276 45.5142 117.87 45.9532V53.1504L119.375 54.6637V55.172H112.362V54.6753H112.338ZM106.603 43.4579C105.79 43.4579 105.205 43.8738 104.846 44.694C104.488 45.5142 104.285 46.5078 104.225 47.6745L108.658 47.4088C108.658 45.9648 108.49 44.9366 108.144 44.3475C107.809 43.7467 107.284 43.4579 106.603 43.4579ZM108.192 53.3929C108.67 53.3929 109.112 53.3121 109.506 53.1388C109.9 52.9655 110.247 52.7576 110.522 52.5381C110.796 52.3186 111.107 52.0298 111.442 51.6717L112.266 52.5265C111.489 53.4854 110.641 54.2132 109.745 54.7215C108.837 55.2298 107.75 55.4839 106.447 55.4839C105.193 55.4839 104.082 55.2182 103.138 54.6753C102.194 54.1323 101.453 53.3814 100.939 52.4226C100.413 51.4637 100.162 50.3547 100.162 49.1186C100.162 47.7901 100.437 46.6002 100.999 45.5604C101.56 44.5207 102.349 43.7236 103.353 43.146C104.356 42.5684 105.515 42.2796 106.806 42.2796C107.989 42.2796 109.028 42.5568 109.9 43.1113C110.773 43.6659 111.442 44.4052 111.896 45.3641C112.35 46.3114 112.577 47.3742 112.577 48.5525H104.201C104.213 49.5113 104.404 50.3662 104.739 51.094C105.085 51.8218 105.551 52.3879 106.16 52.7922C106.77 53.1966 107.451 53.3929 108.192 53.3929ZM89.4449 44.6247L88.0947 43.1113V42.6146H95.0606V43.1113L93.806 44.6363L96.0642 50.5973L98.5255 44.6363L97.271 43.1113V42.6146H101.321V43.1113L99.8399 44.6594L95.2637 55.1951H94.0808L89.4449 44.6247ZM73.5417 54.6868L75.3101 52.5958V39.8882L73.5417 37.8088V37.3005H83.8889L87.5332 37.0348L88.0589 41.4825L87.342 41.494L83.9009 38.629H79.504V45.3641H82.73L84.331 43.2615H84.9284V48.8182H84.331L82.73 46.681H79.504V53.8666H84.2354L88.3218 50.8514L88.8355 50.863L88.3695 55.1836H73.5417V54.6868ZM165.579 26.9149C164.456 26.9149 163.536 26.6261 162.819 26.06C162.114 25.4824 161.756 24.6391 161.756 23.507V15.1893H160.107V14.4153L161.72 13.0752L164.862 10.7301H165.591V14.0571H169.462V15.1893H165.675V23.0795C165.675 23.7034 165.818 24.1655 166.105 24.4312C166.392 24.7084 166.81 24.847 167.371 24.847C167.79 24.847 168.136 24.7777 168.423 24.6276C168.71 24.4774 169.032 24.2579 169.391 23.9806L170 24.8701C169.522 25.4478 168.901 25.933 168.124 26.3373C167.336 26.707 166.499 26.9149 165.579 26.9149ZM153.022 25.7828C154.073 25.7828 154.85 25.3669 155.34 24.5467C155.829 23.7149 156.08 22.4557 156.08 20.7691C156.08 19.0593 155.829 17.777 155.34 16.9452C154.85 16.1135 154.133 15.6976 153.201 15.6976C152.687 15.6976 152.209 15.8478 151.779 16.1481C151.337 16.4485 151.002 16.795 150.775 17.1763V24.4427C150.978 24.8355 151.289 25.159 151.695 25.4131C152.125 25.6557 152.556 25.7828 153.022 25.7828ZM145.267 31.2702L146.868 29.7568V16.8644L145.422 15.2701V14.7503L150.333 13.7337L150.68 14.0571L150.524 15.9055H150.787C151.361 15.247 151.994 14.7272 152.687 14.3229C153.38 13.9185 154.109 13.7221 154.874 13.7221C155.937 13.7221 156.869 13.9763 157.681 14.4961C158.494 15.0044 159.127 15.7322 159.581 16.6795C160.035 17.6153 160.262 18.7012 160.262 19.9373C160.262 21.2774 159.987 22.4788 159.438 23.5301C158.888 24.5813 158.088 25.4131 157.048 26.0139C156.009 26.6146 154.766 26.9149 153.332 26.9149C152.412 26.9149 151.564 26.7185 150.775 26.3258V29.7799L152.544 31.2817V31.79H145.267V31.2702ZM139.329 14.8889C138.516 14.8889 137.931 15.3048 137.572 16.125C137.214 16.9452 137.011 17.9387 136.951 19.1055L141.384 18.8398C141.384 17.3958 141.217 16.3676 140.87 15.7784C140.536 15.1893 140.01 14.8889 139.329 14.8889ZM140.918 24.824C141.396 24.824 141.838 24.7431 142.232 24.5698C142.627 24.3965 142.973 24.1886 143.248 23.9691C143.523 23.7496 143.833 23.4608 144.168 23.1026L144.992 23.9575C144.216 24.9164 143.367 25.6442 142.471 26.1525C141.563 26.6608 140.476 26.9149 139.174 26.9149C137.919 26.9149 136.808 26.6492 135.864 26.1063C134.92 25.5633 134.179 24.8124 133.665 23.8536C133.14 22.8947 132.889 21.7857 132.889 20.5496C132.889 19.221 133.164 18.0312 133.725 16.9915C134.287 15.9517 135.075 15.1546 136.079 14.577C137.083 13.9994 138.242 13.7105 139.532 13.7105C140.715 13.7105 141.754 13.9878 142.627 14.5423C143.499 15.0968 144.168 15.8362 144.622 16.795C145.076 17.7423 145.303 18.8052 145.303 19.9835H136.927C136.939 20.9424 137.13 21.7972 137.465 22.525C137.811 23.2528 138.277 23.8189 138.887 24.2232C139.496 24.6275 140.177 24.824 140.918 24.824ZM126.688 26.9149C125.469 26.9149 124.394 26.6608 123.462 26.1293C122.518 25.6095 121.789 24.8702 121.275 23.9113C120.749 22.9525 120.486 21.855 120.486 20.5958C120.486 19.2442 120.797 18.0427 121.406 17.003C122.028 15.9633 122.876 15.1546 123.975 14.577C125.063 13.9994 126.317 13.7105 127.703 13.7105C128.408 13.7105 129.173 13.7799 129.985 13.9185C130.798 14.0571 131.455 14.2189 131.969 14.4037L131.335 18.0658H130.631C129.794 16.7488 129.029 15.6976 128.36 14.9236C128.289 14.912 128.193 14.8889 128.074 14.8658C127.954 14.8427 127.835 14.8311 127.739 14.8311C127.13 14.8311 126.592 15.016 126.114 15.3857C125.636 15.7553 125.266 16.2867 125.003 16.9799C124.74 17.673 124.609 18.4817 124.609 19.3943C124.609 20.5149 124.776 21.4738 125.087 22.294C125.409 23.1027 125.863 23.7265 126.449 24.1655C127.034 24.5929 127.715 24.8124 128.492 24.8124C129.137 24.8124 129.734 24.6507 130.308 24.3387C130.881 24.0153 131.395 23.634 131.861 23.1719L132.614 23.9691C131.933 24.8586 131.108 25.5633 130.117 26.0947C129.113 26.6377 127.978 26.9149 126.688 26.9149ZM104.798 26.1063L106.388 24.5929V16.8644L104.942 15.2586V14.7618L109.853 13.7337L110.199 14.0571L110.044 15.9055H110.318C110.964 15.2586 111.693 14.7272 112.493 14.3229C113.294 13.9185 114.142 13.7105 115.038 13.7105C115.779 13.7105 116.46 13.8723 117.069 14.1727C117.667 14.4846 118.145 14.912 118.491 15.4665C118.838 16.021 119.005 16.6449 119.005 17.3496V24.5698L120.582 26.0832V26.5915H113.568V26.0832L115.074 24.5698V18.008C115.074 17.3149 114.895 16.7488 114.548 16.3214C114.202 15.894 113.748 15.686 113.198 15.686C112.708 15.686 112.206 15.8593 111.693 16.1943C111.191 16.5409 110.737 16.9337 110.33 17.3727V24.5813L111.836 26.0947V26.603H104.822V26.1063H104.798ZM97.737 25.7828C98.657 25.7828 99.3619 25.3554 99.8637 24.4889C100.366 23.6225 100.616 22.2593 100.616 20.4109C100.616 18.551 100.366 17.1647 99.8518 16.2405C99.338 15.3163 98.6331 14.8658 97.7131 14.8658C96.805 14.8658 96.1001 15.3163 95.5863 16.2405C95.0845 17.1532 94.8335 18.551 94.8335 20.4225C94.8335 22.2824 95.0845 23.6341 95.5863 24.5005C96.112 25.3554 96.8289 25.7828 97.737 25.7828ZM97.725 26.9149C96.3988 26.9149 95.192 26.6261 94.1166 26.0716C93.0413 25.5055 92.193 24.72 91.5836 23.7149C90.9743 22.7098 90.6636 21.5777 90.6636 20.3301C90.6636 19.0824 90.9743 17.9618 91.5836 16.9683C92.2049 15.9633 93.0533 15.1777 94.1286 14.6001C95.2039 14.0225 96.4107 13.7337 97.725 13.7337C99.0513 13.7337 100.258 14.0225 101.333 14.6001C102.409 15.1777 103.257 15.9633 103.878 16.9683C104.5 17.9734 104.798 19.094 104.798 20.3301C104.798 21.5777 104.488 22.7098 103.878 23.7149C103.257 24.72 102.409 25.5055 101.333 26.0716C100.258 26.6261 99.0513 26.9149 97.725 26.9149ZM83.184 26.9149C81.3201 26.9149 79.6593 26.5337 78.2016 25.7597C76.7439 24.9857 75.6088 23.9113 74.7963 22.5366C73.9839 21.1503 73.5776 19.5907 73.5776 17.8463C73.5776 16.0441 73.9719 14.4384 74.7844 13.0174C75.5849 11.5965 76.72 10.4759 78.2016 9.67878C79.6712 8.87012 81.3798 8.47733 83.3154 8.47733C84.1757 8.47733 84.9284 8.512 85.5736 8.56976C86.2189 8.62753 86.7924 8.70838 87.2822 8.81235C87.7721 8.90477 88.4174 9.05495 89.182 9.23979L89.7197 14.369H88.9072C88.6324 13.4795 88.2501 12.694 87.7363 12.0124C87.2345 11.3308 86.6251 10.7878 85.9082 10.395C85.1913 10.0022 84.4027 9.80588 83.5305 9.80588C81.7144 9.80588 80.3642 10.4875 79.4561 11.8506C78.5481 13.2023 78.106 15.1893 78.106 17.7886C78.106 20.3647 78.572 22.3171 79.492 23.6225C80.412 24.9279 81.7382 25.5864 83.4707 25.5864C84.7373 25.5864 85.8485 25.1936 86.8043 24.385C87.7602 23.5878 88.4651 22.4673 88.9072 21.0117H89.7197L89.182 26.1409C88.0709 26.4297 87.115 26.6377 86.3144 26.7417C85.5139 26.8572 84.4744 26.9149 83.184 26.9149Z" fill="white"/>
<path d="M32.8938 54.9872C19.8583 54.9179 9.27211 44.7056 9.22431 32.0673C9.17652 19.3712 19.7627 9.03185 32.8938 8.97409V54.9872ZM52.477 25.4016C56.2288 25.4016 59.2755 28.3474 59.2755 31.9749C59.2755 35.6023 56.2288 38.5481 52.477 38.5481C48.7253 38.5481 45.6784 35.6023 45.6784 31.9749C45.6904 28.3474 48.7253 25.4016 52.477 25.4016ZM46.6821 8.96253H58.2719V20.1683L46.6821 8.96253ZM46.6821 54.9872H58.2719V43.7814L46.6821 54.9872ZM32.8938 0.0440979C14.6488 0.113412 -0.0714288 14.4615 0.000260744 32.1019C0.0719503 49.6615 14.7802 63.8478 32.8938 63.9056V54.9872H42.1298V8.97409H32.8938V0.0440979Z" fill="white"/>
</svg>

<svg width="170" height="64" fill="none" xmlns="http://www.w3.org/2000/svg"><path d="M142.388 55.472c-.92 0-1.805-.08-2.665-.254-.86-.173-1.553-.393-2.091-.67l.777-3.373h.561c.371.543.789 1.097 1.255 1.675.466.578.884 1.028 1.255 1.363.322.093.704.139 1.135.139 1.577 0 2.377-.462 2.377-1.386 0-.37-.119-.705-.358-1.005-.239-.3-.55-.555-.932-.786-.382-.22-.872-.485-1.482-.762l-.37-.185c-.825-.382-1.506-.74-2.043-1.086a4.48 4.48 0 0 1-1.326-1.294c-.347-.52-.526-1.144-.526-1.883 0-1.202.502-2.114 1.493-2.727 1.004-.623 2.342-.935 4.015-.935.645 0 1.338.057 2.067.184.741.128 1.386.29 1.948.486l-.61 3.292h-.573c-.92-1.398-1.625-2.31-2.127-2.75a9.436 9.436 0 0 0-1.028-.08c-.621 0-1.099.104-1.422.323-.31.22-.477.52-.477.913 0 .381.107.728.334 1.04.227.3.526.577.908.808.383.231.872.497 1.47.774l.37.174c.801.37 1.47.727 2.019 1.086.55.358 1.004.797 1.375 1.305.358.52.549 1.12.549 1.814 0 .82-.251 1.513-.753 2.09-.501.578-1.206 1.006-2.079 1.294-.896.278-1.899.416-3.046.416zm-9.105 0c-1.123 0-2.043-.288-2.76-.855-.705-.577-1.063-1.42-1.063-2.553v-8.317h-1.649v-.774l1.613-1.34 3.142-2.346h.729v3.328h3.871v1.132h-3.787v7.89c0 .624.143 1.086.43 1.352.286.277.705.416 1.266.416.418 0 .765-.07 1.052-.22.286-.15.609-.37.968-.647l.609.89c-.478.577-1.099 1.062-1.876 1.467a5.702 5.702 0 0 1-2.545.577zm-20.945-.797 1.589-1.513v-7.729l-1.446-1.605v-.497l4.911-1.028.346.323-.155 1.849h.275a8.444 8.444 0 0 1 2.174-1.583 5.577 5.577 0 0 1 2.545-.612c.741 0 1.422.161 2.032.462.597.312 1.075.739 1.421 1.294.347.554.514 1.178.514 1.883v7.231l1.577 1.514v.508h-7.013v-.508l1.505-1.514V46.59c0-.694-.179-1.26-.525-1.687-.347-.428-.801-.635-1.351-.635-.49 0-.991.173-1.505.508-.502.346-.956.74-1.362 1.178v7.197l1.505 1.514v.508h-7.013v-.497h-.024zm-5.735-11.217c-.813 0-1.398.416-1.757 1.236-.358.82-.561 1.814-.621 2.98l4.433-.265c0-1.444-.168-2.472-.514-3.062-.335-.6-.86-.89-1.541-.89zm1.589 9.935c.478 0 .92-.08 1.314-.254a4.636 4.636 0 0 0 1.016-.6 8.96 8.96 0 0 0 .92-.867l.824.855c-.777.958-1.625 1.686-2.521 2.194-.908.509-1.995.763-3.298.763-1.254 0-2.365-.266-3.309-.809a5.635 5.635 0 0 1-2.199-2.252c-.526-.96-.777-2.068-.777-3.304 0-1.329.275-2.519.837-3.559a6.044 6.044 0 0 1 2.354-2.414c1.003-.578 2.162-.866 3.453-.866 1.183 0 2.222.277 3.094.831a5.3 5.3 0 0 1 1.996 2.253c.454.947.681 2.01.681 3.189h-8.376c.012.958.203 1.813.538 2.541.346.728.812 1.294 1.421 1.698.61.405 1.291.6 2.032.6zm-18.747-8.768-1.35-1.514v-.496h6.966v.496l-1.255 1.525 2.258 5.961 2.462-5.96-1.255-1.526v-.496h4.05v.496L99.84 44.66l-4.576 10.536H94.08l-4.636-10.57zM73.542 54.687l1.768-2.091V39.888l-1.768-2.08V37.3h10.347l3.644-.265.526 4.448-.717.011-3.441-2.865h-4.397v6.735h3.226l1.601-2.102h.597v5.556h-.597l-1.601-2.137h-3.226v7.186h4.731l4.087-3.016.513.012-.465 4.32H73.541v-.496zm92.037-27.772c-1.123 0-2.043-.289-2.76-.855-.705-.578-1.063-1.42-1.063-2.553v-8.318h-1.649v-.774l1.613-1.34 3.142-2.345h.729v3.327h3.871v1.132h-3.787v7.89c0 .624.143 1.087.43 1.352.287.277.705.416 1.266.416.419 0 .765-.07 1.052-.22.287-.15.609-.37.968-.646l.609.89c-.478.577-1.099 1.062-1.876 1.466a5.897 5.897 0 0 1-2.545.578zm-12.557-1.132c1.051 0 1.828-.416 2.318-1.236.489-.832.74-2.091.74-3.778 0-1.71-.251-2.992-.74-3.824-.49-.832-1.207-1.247-2.139-1.247-.514 0-.992.15-1.422.45-.442.3-.777.647-1.004 1.028v7.267a2.5 2.5 0 0 0 .92.97c.43.243.861.37 1.327.37zm-7.755 5.487 1.601-1.513V16.864l-1.446-1.594v-.52l4.911-1.016.347.323-.156 1.848h.263a7.555 7.555 0 0 1 1.9-1.582 4.268 4.268 0 0 1 2.187-.6c1.063 0 1.995.253 2.807.773.813.508 1.446 1.236 1.9 2.184.454.935.681 2.021.681 3.257 0 1.34-.275 2.542-.824 3.593a6.077 6.077 0 0 1-2.39 2.484c-1.039.6-2.282.9-3.716.9-.92 0-1.768-.196-2.557-.588v3.454l1.769 1.502v.508h-7.277v-.52zm-5.938-16.381c-.813 0-1.398.416-1.757 1.236-.358.82-.561 1.814-.621 2.98l4.433-.265c0-1.444-.167-2.472-.514-3.062-.334-.589-.86-.89-1.541-.89zm1.589 9.935c.478 0 .92-.08 1.314-.254a4.612 4.612 0 0 0 1.016-.6 8.85 8.85 0 0 0 .92-.867l.824.854c-.776.96-1.625 1.687-2.521 2.195-.908.509-1.995.763-3.297.763-1.255 0-2.366-.266-3.31-.809a5.635 5.635 0 0 1-2.199-2.252c-.525-.96-.776-2.068-.776-3.304 0-1.329.275-2.519.836-3.559a6.05 6.05 0 0 1 2.354-2.414c1.004-.578 2.163-.867 3.453-.867 1.183 0 2.222.278 3.095.832a5.304 5.304 0 0 1 1.995 2.253c.454.947.681 2.01.681 3.188h-8.376c.012.96.203 1.814.538 2.542.346.728.812 1.294 1.422 1.698.609.405 1.29.601 2.031.601zm-14.23 2.09c-1.219 0-2.294-.253-3.226-.785a5.378 5.378 0 0 1-2.187-2.218c-.526-.959-.789-2.056-.789-3.315 0-1.352.311-2.553.92-3.593a6.397 6.397 0 0 1 2.569-2.426c1.088-.578 2.342-.867 3.728-.867.705 0 1.47.07 2.282.208.813.14 1.47.3 1.984.486l-.634 3.662h-.704c-.837-1.317-1.602-2.368-2.271-3.142-.071-.012-.167-.035-.286-.058a1.842 1.842 0 0 0-.335-.035 2.58 2.58 0 0 0-1.625.555c-.478.37-.848.9-1.111 1.594-.263.693-.394 1.502-.394 2.414 0 1.12.167 2.08.478 2.9.322.809.776 1.433 1.362 1.872.585.427 1.266.646 2.043.646.645 0 1.242-.161 1.816-.473a7.213 7.213 0 0 0 1.553-1.167l.753.797a7.657 7.657 0 0 1-2.497 2.126c-1.004.543-2.139.82-3.429.82zm-21.89-.808 1.59-1.513v-7.729l-1.446-1.605v-.497l4.911-1.028.346.323-.155 1.848h.274a8.463 8.463 0 0 1 2.175-1.582 5.576 5.576 0 0 1 2.545-.613c.741 0 1.422.162 2.031.463.598.312 1.076.739 1.422 1.293.347.555.514 1.179.514 1.884v7.22l1.577 1.513v.509h-7.014v-.509l1.506-1.513v-6.562c0-.693-.179-1.26-.526-1.687-.346-.427-.8-.635-1.35-.635-.49 0-.992.173-1.505.508a8.22 8.22 0 0 0-1.363 1.179v7.208l1.506 1.514v.508h-7.014v-.497h-.024zm-7.061-.323c.92 0 1.625-.428 2.127-1.294.502-.867.752-2.23.752-4.078 0-1.86-.25-3.246-.764-4.17-.514-.925-1.219-1.375-2.139-1.375-.908 0-1.613.45-2.127 1.375-.501.912-.752 2.31-.752 4.181 0 1.86.25 3.212.752 4.078.526.855 1.243 1.283 2.151 1.283zm-.012 1.132c-1.326 0-2.533-.289-3.608-.843-1.076-.566-1.924-1.352-2.533-2.357-.61-1.005-.92-2.137-.92-3.385 0-1.248.31-2.368.92-3.362.62-1.005 1.47-1.79 2.545-2.368 1.075-.577 2.282-.866 3.596-.866 1.326 0 2.533.289 3.608.866 1.076.578 1.924 1.363 2.545 2.368.622 1.005.92 2.126.92 3.362 0 1.248-.31 2.38-.92 3.385a6.471 6.471 0 0 1-2.545 2.357c-1.075.554-2.282.843-3.608.843zm-14.541 0c-1.864 0-3.525-.381-4.982-1.155-1.458-.774-2.593-1.849-3.406-3.223-.812-1.387-1.218-2.946-1.218-4.69 0-1.803.394-3.409 1.206-4.83a8.422 8.422 0 0 1 3.418-3.338c1.47-.809 3.178-1.202 5.113-1.202.86 0 1.613.035 2.259.093.645.058 1.218.138 1.708.242.49.093 1.135.243 1.9.428l.538 5.129h-.813c-.275-.89-.657-1.675-1.17-2.357a5.601 5.601 0 0 0-1.829-1.617 4.855 4.855 0 0 0-2.377-.59c-1.817 0-3.167.683-4.075 2.046-.908 1.351-1.35 3.338-1.35 5.938 0 2.576.466 4.528 1.386 5.833.92 1.306 2.246 1.964 3.979 1.964 1.266 0 2.377-.392 3.333-1.201.956-.797 1.661-1.918 2.103-3.373h.813l-.538 5.129c-1.111.289-2.067.497-2.868.6-.8.116-1.84.174-3.13.174zM32.894 54.987c-13.036-.07-23.622-10.281-23.67-22.92-.047-12.696 10.539-23.035 23.67-23.093v46.013zm19.583-29.585c3.752 0 6.799 2.945 6.799 6.573 0 3.627-3.047 6.573-6.799 6.573-3.752 0-6.799-2.946-6.799-6.573.012-3.628 3.047-6.573 6.799-6.573zm-5.795-16.44h11.59v11.206L46.682 8.963zm0 46.025h11.59V43.781l-11.59 11.206zM32.894.044C14.649.114-.071 14.461 0 32.102c.072 17.56 14.78 31.746 32.894 31.804v-8.919h9.236V8.974h-9.236V.044z" fill="#fff"/></svg>
